;FLAVOR:UltiGCode
;TIME:4612
;MATERIAL:8341
;MATERIAL2:0
;NOZZLE_DIAMETER:0.4
;MINX:68.677
;MINY:88.105
;MINZ:0.27
;MAXX:152.941
;MAXY:134.905
;MAXZ:18.87
;Generated with Cura_SteamEngine 4.13.1
M82 ;absolute extrusion mode
G0 F3000 Y50 ;avoid prime blob
G92 E0
G92 E0
G10
;LAYER_COUNT:126
;LAYER:0
M107
G0 F4500 X72.727 Y92.726 Z0.27
;TYPE:SKIRT
G11
G1 F1800 X73.362 Y92.25 E0.075
G1 X74.042 Y91.841 E0.14998
G1 X74.76 Y91.503 E0.22498
G1 X75.508 Y91.238 E0.29997
G1 X76.279 Y91.05 E0.37496
G1 X77.065 Y90.94 E0.44996
G1 X77.745 Y90.91 E0.51429
G1 X79.668 Y90.907 E0.69601
G1 X80.46 Y90.946 E0.77094
G1 X81.245 Y91.064 E0.84596
G1 X81.668 Y91.172 E0.88722
G1 X85.143 Y91.169 E1.2156
G1 X85.936 Y91.208 E1.29063
G1 X86.72 Y91.327 E1.36557
G1 X87.199 Y91.45 E1.4123
G1 X87.255 Y91.366 E1.42184
G1 X87.761 Y90.755 E1.49681
G1 X88.182 Y90.328 E1.55348
G1 X88.779 Y89.805 E1.62848
G1 X89.425 Y89.345 E1.70342
G1 X90.114 Y88.951 E1.77843
G1 X90.839 Y88.63 E1.85336
G1 X91.593 Y88.383 E1.92833
G1 X92.368 Y88.213 E2.00331
G1 X93.157 Y88.121 E2.07838
G1 X93.666 Y88.105 E2.1265
G1 X95.343 Y88.105 E2.28498
G1 X96.135 Y88.145 E2.35992
G1 X96.92 Y88.264 E2.43495
G1 X97.688 Y88.462 E2.5099
G1 X98.433 Y88.737 E2.58494
G1 X99.146 Y89.084 E2.65988
G1 X99.821 Y89.502 E2.73491
G1 X100.45 Y89.985 E2.80985
G1 X100.754 Y90.265 E2.84891
G1 X101.074 Y90.126 E2.88188
G1 X101.83 Y89.884 E2.95689
G1 X102.606 Y89.72 E3.03184
G1 X103.395 Y89.634 E3.10684
G1 X103.844 Y89.621 E3.14929
G1 X111.699 Y89.617 E3.89159
G1 X112.491 Y89.657 E3.96653
G1 X113.276 Y89.776 E4.04156
G1 X113.817 Y89.905 E4.09412
G1 X114.34 Y90.024 E4.1448
G1 X115.116 Y90.232 E4.22072
G1 X115.735 Y90.326 E4.27989
G1 X116.321 Y90.464 E4.33678
G1 X117.038 Y90.649 E4.40676
G1 X118.259 Y90.648 E4.52214
G1 X119.641 Y90.028 E4.66528
G1 X120.38 Y89.74 E4.74023
G1 X121.145 Y89.528 E4.81525
G1 X122.288 Y89.359 E4.92444
G1 X124.044 Y89.23 E5.09083
G1 X124.837 Y89.212 E5.16578
G1 X125.628 Y89.274 E5.24076
G1 X126.409 Y89.415 E5.31576
G1 X127.172 Y89.634 E5.39077
G1 X127.909 Y89.928 E5.46576
G1 X128.027 Y89.99 E5.47836
G1 X128.178 Y89.855 E5.4975
G1 X128.819 Y89.388 E5.57244
G1 X129.505 Y88.988 E5.64748
G1 X130.227 Y88.659 E5.72246
G1 X130.978 Y88.404 E5.79741
G1 X131.751 Y88.226 E5.87237
G1 X132.539 Y88.127 E5.94742
G1 X133.128 Y88.105 E6.00312
G1 X134.73 Y88.105 E6.15451
G1 X135.522 Y88.145 E6.22945
G1 X136.307 Y88.264 E6.30448
G1 X137.075 Y88.462 E6.37943
G1 X137.82 Y88.737 E6.45448
G1 X138.533 Y89.084 E6.52941
G1 X139.208 Y89.502 E6.60444
G1 X139.837 Y89.985 E6.67938
G1 X140.215 Y90.329 E6.72768
G1 X140.317 Y90.428 E6.74111
G1 X140.858 Y91.009 E6.81613
G1 X141.337 Y91.641 E6.89107
G1 X141.751 Y92.318 E6.96606
G1 X142.094 Y93.033 E7.041
G1 X142.364 Y93.78 E7.11607
G1 X142.504 Y94.339 E7.17052
G1 X143.081 Y94.303 E7.22516
G1 X143.874 Y94.332 E7.30014
G1 X144.66 Y94.441 E7.37513
G1 X145.431 Y94.629 E7.45013
G1 X146.179 Y94.893 E7.52509
G1 X146.897 Y95.232 E7.60012
G1 X147.577 Y95.64 E7.67506
G1 X148.212 Y96.116 E7.75005
G1 X148.731 Y96.586 E7.81622
G1 X149.1 Y96.952 E7.86534
G1 X149.478 Y97.354 E7.91748
G1 X150.967 Y99.054 E8.13104
G1 X151.459 Y99.677 E8.20606
G1 X151.886 Y100.346 E8.28106
G1 X152.243 Y101.054 E8.35599
G1 X152.478 Y101.647 E8.41627
G1 X152.5 Y101.71 E8.42257
G1 X152.723 Y102.471 E8.49751
G1 X152.869 Y103.251 E8.5725
G1 X152.94 Y104.305 E8.67233
G1 X152.941 Y118.545 E10.01801
G1 X152.901 Y119.338 E10.09305
G1 X152.782 Y120.122 E10.16798
G1 X152.485 Y121.187 E10.27247
G1 X152.464 Y121.246 E10.27838
G1 X152.161 Y121.979 E10.35334
G1 X151.785 Y122.678 E10.42834
G1 X151.341 Y123.335 E10.50328
G1 X150.965 Y123.798 E10.55964
G1 X149.486 Y125.484 E10.77158
G1 X149.105 Y125.888 E10.82406
G1 X148.72 Y126.269 E10.87525
G1 X148.129 Y126.798 E10.9502
G1 X147.487 Y127.265 E11.02522
G1 X146.802 Y127.665 E11.10018
G1 X146.08 Y127.994 E11.17516
G1 X145.328 Y128.249 E11.2502
G1 X144.555 Y128.426 E11.32514
G1 X143.768 Y128.525 E11.4001
G1 X142.974 Y128.544 E11.47515
G1 X142.545 Y128.511 E11.51581
G1 X142.54 Y128.546 E11.51915
G1 X142.338 Y129.314 E11.5942
G1 X142.06 Y130.057 E11.66917
G1 X141.708 Y130.768 E11.74414
G1 X141.287 Y131.441 E11.81916
G1 X140.8 Y132.067 E11.89411
G1 X140.374 Y132.524 E11.95315
G1 X140.271 Y132.626 E11.96684
G1 X139.68 Y133.155 E12.0418
G1 X139.039 Y133.622 E12.11674
G1 X138.353 Y134.022 E12.19179
G1 X137.631 Y134.351 E12.26677
G1 X136.88 Y134.606 E12.34172
G1 X136.107 Y134.784 E12.41668
G1 X135.319 Y134.883 E12.49173
G1 X134.73 Y134.905 E12.54743
G1 X133.13 Y134.905 E12.69863
G1 X132.338 Y134.865 E12.77357
G1 X131.553 Y134.746 E12.8486
G1 X130.785 Y134.548 E12.92354
G1 X130.04 Y134.273 E12.99859
G1 X129.327 Y133.926 E13.07352
G1 X128.652 Y133.508 E13.14855
G1 X128.023 Y133.025 E13.2235
G1 X127.908 Y132.919 E13.23828
G1 X127.409 Y133.137 E13.28973
G1 X126.653 Y133.38 E13.36478
G1 X125.877 Y133.545 E13.43975
G1 X125.089 Y133.631 E13.51466
G1 X124.05 Y133.624 E13.61284
G1 X122.305 Y133.496 E13.77819
G1 X121.517 Y133.398 E13.85323
G1 X120.704 Y133.21 E13.93209
G1 X119.649 Y132.825 E14.03821
G1 X118.276 Y132.21 E14.18038
G1 X117.024 Y132.21 E14.2987
G1 X116.29 Y132.393 E14.37018
G1 X115.723 Y132.529 E14.42529
G1 X115.142 Y132.61 E14.48072
G1 X113.643 Y132.996 E14.627
G1 X112.865 Y133.155 E14.70204
G1 X112.076 Y133.235 E14.77698
G1 X111.677 Y133.245 E14.8147
G1 X103.852 Y133.244 E15.55416
G1 X103.06 Y133.204 E15.6291
G1 X102.275 Y133.084 E15.70414
G1 X101.507 Y132.886 E15.77909
G1 X100.86 Y132.648 E15.84424
G1 X100.294 Y133.155 E15.91605
G1 X99.653 Y133.622 E15.99099
G1 X98.967 Y134.022 E16.06604
G1 X98.245 Y134.351 E16.14102
G1 X97.494 Y134.606 E16.21596
G1 X96.721 Y134.784 E16.29092
G1 X95.933 Y134.883 E16.36598
G1 X95.344 Y134.905 E16.42168
G1 X93.667 Y134.905 E16.58015
G1 X92.875 Y134.865 E16.65509
G1 X92.09 Y134.746 E16.73012
G1 X91.322 Y134.548 E16.80507
G1 X90.577 Y134.273 E16.88012
G1 X89.864 Y133.926 E16.95505
G1 X89.189 Y133.508 E17.03008
G1 X88.56 Y133.025 E17.10502
G1 X88.111 Y132.613 E17.16261
G1 X87.567 Y132.035 E17.23762
G1 X87.12 Y131.452 E17.30704
G1 X86.396 Y131.606 E17.37699
G1 X85.608 Y131.692 E17.4519
G1 X85.145 Y131.706 E17.49567
G1 X82.62 Y131.706 E17.73428
G1 X81.967 Y131.897 E17.79858
G1 X81.187 Y132.042 E17.87355
G1 X80.133 Y132.113 E17.97338
G1 X77.623 Y132.112 E18.21057
G1 X76.83 Y132.072 E18.28561
G1 X76.046 Y131.952 E18.36056
G1 X75.278 Y131.754 E18.43551
G1 X74.582 Y131.497 E18.50562
G1 X74.228 Y131.397 E18.54038
G1 X73.49 Y131.106 E18.61535
G1 X72.785 Y130.742 E18.69033
G1 X72.121 Y130.309 E18.76524
G1 X71.503 Y129.811 E18.84024
G1 X70.938 Y129.253 E18.91528
G1 X70.433 Y128.642 E18.99019
G1 X69.991 Y127.982 E19.06526
G1 X69.618 Y127.282 E19.14021
G1 X69.318 Y126.548 E19.21514
G1 X69.093 Y125.787 E19.29014
G1 X68.945 Y125.007 E19.36516
G1 X68.872 Y123.936 E19.46661
G1 X68.872 Y123.316 E19.5252
G1 X68.838 Y123.084 E19.54735
G1 X68.803 Y122.338 E19.61793
G1 X68.803 Y121.772 E19.67142
G1 X68.794 Y121.713 E19.67706
G1 X68.754 Y120.921 E19.75199
G1 X68.794 Y120.128 E19.82703
G1 X68.914 Y119.344 E19.90198
G1 X69.112 Y118.576 E19.97693
G1 X69.387 Y117.831 E20.05197
G1 X69.735 Y117.118 E20.12695
G1 X70.153 Y116.444 E20.2019
G1 X70.637 Y115.815 E20.2769
G1 X71.011 Y115.405 E20.32934
G1 X72.287 Y114.106 E20.50141
G1 X72.291 Y109.183 E20.96664
G1 X72.122 Y109.024 E20.98857
G1 X70.935 Y107.814 E21.14874
G1 X70.409 Y107.22 E21.22372
G1 X69.945 Y106.576 E21.29873
G1 X69.548 Y105.889 E21.37371
G1 X69.222 Y105.166 E21.44866
G1 X68.971 Y104.413 E21.52367
G1 X68.797 Y103.639 E21.59864
G1 X68.701 Y102.851 E21.67365
G1 X68.686 Y102.058 E21.74861
G1 X68.75 Y101.267 E21.8236
G1 X68.771 Y101.155 E21.83437
G1 X68.71 Y100.731 E21.87485
G1 X68.677 Y99.938 E21.94985
G1 X68.725 Y99.146 E22.02483
G1 X68.851 Y98.363 E22.09978
G1 X69.056 Y97.596 E22.1748
G1 X69.337 Y96.854 E22.24978
G1 X69.691 Y96.144 E22.32475
G1 X70.115 Y95.473 E22.39976
G1 X70.604 Y94.849 E22.47468
G1 X70.938 Y94.488 E22.52116
G1 X72.143 Y93.263 E22.68354
G1 X72.727 Y92.726 E22.75851
G0 F4500 X72.964 Y92.984
G1 F1800 X73.587 Y92.521 E22.83186
G1 X74.254 Y92.125 E22.90517
G1 X74.958 Y91.8 E22.97844
G1 X75.692 Y91.549 E23.05175
G1 X76.447 Y91.375 E23.12497
G1 X77.217 Y91.279 E23.19829
G1 X77.745 Y91.26 E23.24822
G1 X79.668 Y91.257 E23.42995
G1 X80.443 Y91.296 E23.50328
G1 X81.209 Y91.414 E23.57652
G1 X81.622 Y91.522 E23.61686
G1 X85.144 Y91.519 E23.94969
G1 X85.918 Y91.558 E24.02292
G1 X86.685 Y91.677 E24.09627
G1 X87.351 Y91.852 E24.16134
G1 X87.599 Y91.492 E24.20266
G1 X88.325 Y90.677 E24.3058
G1 X88.426 Y90.579 E24.3191
G1 X89.01 Y90.069 E24.39237
G1 X89.643 Y89.621 E24.46565
G1 X90.319 Y89.24 E24.53898
G1 X91.03 Y88.932 E24.61221
G1 X91.77 Y88.698 E24.68555
G1 X92.53 Y88.541 E24.75888
G1 X93.666 Y88.455 E24.86654
G1 X95.343 Y88.455 E25.02502
G1 X96.118 Y88.495 E25.09836
G1 X96.884 Y88.614 E25.17161
G1 X97.634 Y88.812 E25.24491
G1 X98.36 Y89.086 E25.31824
G1 X99.053 Y89.433 E25.39148
G1 X99.707 Y89.85 E25.46478
G1 X100.315 Y90.332 E25.5381
G1 X100.677 Y90.672 E25.58503
G1 X101.394 Y90.382 E25.65812
G1 X102.14 Y90.168 E25.73146
G1 X102.903 Y90.031 E25.80472
G1 X103.844 Y89.971 E25.89382
G1 X111.699 Y89.967 E26.63612
G1 X112.474 Y90.007 E26.70946
G1 X113.579 Y90.205 E26.81554
G1 X114.249 Y90.362 E26.88057
G1 X115.036 Y90.573 E26.95757
G1 X115.699 Y90.676 E27.02098
G1 X116.285 Y90.814 E27.07787
G1 X116.985 Y90.999 E27.14629
G1 X118.336 Y90.998 E27.27396
G1 X119.784 Y90.348 E27.42395
G1 X120.507 Y90.067 E27.49725
G1 X121.255 Y89.862 E27.57054
G1 X122.314 Y89.708 E27.67167
G1 X124.07 Y89.579 E27.83806
G1 X124.845 Y89.562 E27.91132
G1 X125.618 Y89.625 E27.98461
G1 X126.381 Y89.768 E28.05797
G1 X127.124 Y89.988 E28.13119
G1 X127.842 Y90.283 E28.20455
G1 X128.081 Y90.412 E28.23021
G1 X128.412 Y90.116 E28.27217
G1 X129.04 Y89.662 E28.3454
G1 X129.712 Y89.275 E28.41869
G1 X130.421 Y88.959 E28.49204
G1 X131.158 Y88.718 E28.56532
G1 X131.916 Y88.553 E28.63862
G1 X132.687 Y88.468 E28.71193
G1 X133.128 Y88.455 E28.75362
G1 X134.73 Y88.455 E28.90501
G1 X135.505 Y88.495 E28.97834
G1 X136.271 Y88.614 E29.0516
G1 X137.021 Y88.812 E29.1249
G1 X137.747 Y89.086 E29.19823
G1 X138.44 Y89.433 E29.27147
G1 X139.094 Y89.85 E29.34477
G1 X139.971 Y90.58 E29.4526
G1 X140.073 Y90.679 E29.46603
G1 X140.601 Y91.247 E29.53932
G1 X141.068 Y91.867 E29.61267
G1 X141.468 Y92.531 E29.68592
G1 X141.798 Y93.233 E29.75922
G1 X142.054 Y93.965 E29.83251
G1 X142.233 Y94.722 E29.90602
G1 X142.555 Y94.678 E29.93673
G1 X143.33 Y94.653 E30.01
G1 X144.104 Y94.708 E30.08333
G1 X144.868 Y94.843 E30.15665
G1 X145.614 Y95.055 E30.22994
G1 X146.334 Y95.343 E30.30322
G1 X147.021 Y95.703 E30.37651
G1 X147.667 Y96.132 E30.44979
G1 X148.484 Y96.834 E30.55159
G1 X148.853 Y97.2 E30.6007
G1 X149.215 Y97.585 E30.65064
G1 X150.704 Y99.285 E30.8642
G1 X151.184 Y99.894 E30.93748
G1 X151.599 Y100.549 E31.01075
G1 X151.944 Y101.244 E31.08408
G1 X152.147 Y101.762 E31.13665
G1 X152.169 Y101.825 E31.14296
G1 X152.387 Y102.57 E31.21631
G1 X152.527 Y103.333 E31.28962
G1 X152.59 Y104.305 E31.38167
G1 X152.591 Y118.545 E32.72735
G1 X152.551 Y119.32 E32.80068
G1 X152.432 Y120.086 E32.87394
G1 X152.155 Y121.069 E32.97045
G1 X152.134 Y121.128 E32.97637
G1 X151.837 Y121.845 E33.04971
G1 X151.467 Y122.527 E33.12303
G1 X151.03 Y123.167 E33.19626
G1 X150.702 Y123.567 E33.24515
G1 X149.223 Y125.253 E33.45709
G1 X148.859 Y125.64 E33.5073
G1 X148.474 Y126.021 E33.55848
G1 X147.895 Y126.537 E33.63177
G1 X147.267 Y126.991 E33.705
G1 X146.594 Y127.378 E33.77837
G1 X145.886 Y127.694 E33.85163
G1 X145.149 Y127.935 E33.92491
G1 X144.391 Y128.099 E33.9982
G1 X143.62 Y128.184 E34.0715
G1 X142.844 Y128.189 E34.14483
G1 X142.251 Y128.132 E34.20113
G1 X142.19 Y128.509 E34.23722
G1 X141.988 Y129.257 E34.31044
G1 X141.711 Y129.982 E34.38378
G1 X141.36 Y130.673 E34.45702
G1 X140.939 Y131.325 E34.53036
G1 X140.454 Y131.931 E34.60371
G1 X140.025 Y132.377 E34.66219
G1 X139.446 Y132.894 E34.73555
G1 X138.818 Y133.348 E34.80878
G1 X138.146 Y133.735 E34.88206
G1 X137.437 Y134.051 E34.95541
G1 X136.7 Y134.292 E35.02869
G1 X135.942 Y134.457 E35.102
G1 X135.171 Y134.542 E35.1753
G1 X134.73 Y134.555 E35.21699
G1 X133.13 Y134.555 E35.36819
G1 X132.355 Y134.515 E35.44152
G1 X131.589 Y134.396 E35.51478
G1 X130.839 Y134.198 E35.58808
G1 X130.113 Y133.924 E35.66141
G1 X129.42 Y133.577 E35.73465
G1 X128.766 Y133.16 E35.80795
G1 X128.158 Y132.678 E35.88127
G1 X127.97 Y132.503 E35.90554
G1 X127.807 Y132.589 E35.92296
G1 X127.088 Y132.881 E35.99629
G1 X126.343 Y133.096 E36.06957
G1 X125.58 Y133.234 E36.14284
G1 X124.807 Y133.293 E36.2161
G1 X124.076 Y133.275 E36.2852
G1 X122.331 Y133.147 E36.45055
G1 X121.561 Y133.05 E36.52389
G1 X120.8 Y132.873 E36.59772
G1 X119.792 Y132.506 E36.6991
G1 X118.349 Y131.86 E36.8485
G1 X116.971 Y131.86 E36.97872
G1 X116.465 Y132.006 E37.02849
G1 X116.254 Y132.044 E37.04875
G1 X115.59 Y132.197 E37.11314
G1 X115.067 Y132.269 E37.16303
G1 X113.555 Y132.657 E37.31055
G1 X112.795 Y132.812 E37.38384
G1 X111.677 Y132.895 E37.48979
G1 X103.852 Y132.894 E38.22925
G1 X103.077 Y132.854 E38.30258
G1 X102.311 Y132.734 E38.37585
G1 X101.561 Y132.536 E38.44916
G1 X100.835 Y132.262 E38.52249
G1 X100.78 Y132.235 E38.52828
G1 X100.639 Y132.377 E38.54719
G1 X100.06 Y132.894 E38.62054
G1 X99.432 Y133.348 E38.69377
G1 X98.76 Y133.735 E38.76705
G1 X98.051 Y134.051 E38.84041
G1 X97.314 Y134.292 E38.91368
G1 X96.556 Y134.457 E38.98699
G1 X95.785 Y134.542 E39.06029
G1 X95.344 Y134.555 E39.10199
G1 X93.667 Y134.555 E39.26046
G1 X92.892 Y134.515 E39.3338
G1 X92.126 Y134.396 E39.40705
G1 X91.376 Y134.198 E39.48036
G1 X90.65 Y133.924 E39.55369
G1 X89.957 Y133.577 E39.62693
G1 X89.303 Y133.16 E39.70022
G1 X88.455 Y132.457 E39.80431
G1 X88.354 Y132.36 E39.81755
G1 X87.823 Y131.795 E39.89082
G1 X87.353 Y131.178 E39.96412
G1 X87.269 Y131.04 E39.97938
G1 X86.862 Y131.157 E40.0194
G1 X86.099 Y131.295 E40.09268
G1 X85.145 Y131.356 E40.18301
G1 X82.567 Y131.356 E40.42663
G1 X82.498 Y131.383 E40.43364
G1 X81.75 Y131.588 E40.50693
G1 X80.985 Y131.715 E40.58021
G1 X80.133 Y131.763 E40.66085
G1 X77.623 Y131.762 E40.89805
G1 X76.848 Y131.722 E40.97138
G1 X76.082 Y131.602 E41.04465
G1 X75.332 Y131.404 E41.11795
G1 X74.721 Y131.173 E41.17968
G1 X74.291 Y131.049 E41.22197
G1 X73.572 Y130.758 E41.29527
G1 X72.886 Y130.395 E41.36862
G1 X72.242 Y129.963 E41.4419
G1 X71.645 Y129.468 E41.51519
G1 X71.103 Y128.913 E41.58849
G1 X70.621 Y128.306 E41.66174
G1 X70.203 Y127.652 E41.73509
G1 X69.856 Y126.959 E41.80833
G1 X69.581 Y126.233 E41.88169
G1 X69.383 Y125.483 E41.955
G1 X69.263 Y124.717 E42.02827
G1 X69.222 Y123.936 E42.10217
G1 X69.222 Y123.287 E42.1635
G1 X69.185 Y123.034 E42.18766
G1 X69.153 Y122.338 E42.25351
G1 X69.153 Y121.736 E42.3104
G1 X69.137 Y121.626 E42.3209
G1 X69.104 Y120.851 E42.3942
G1 X69.152 Y120.077 E42.46749
G1 X69.279 Y119.312 E42.54077
G1 X69.484 Y118.564 E42.61406
G1 X69.765 Y117.841 E42.68736
G1 X70.119 Y117.151 E42.76065
G1 X70.542 Y116.5 E42.83402
G1 X71.261 Y115.65 E42.93922
G1 X72.545 Y114.343 E43.11237
G1 X72.637 Y114.258 E43.1242
G1 X72.641 Y109.036 E43.61768
G1 X72.372 Y108.779 E43.65284
G1 X71.185 Y107.569 E43.81302
G1 X70.671 Y106.988 E43.88632
G1 X70.22 Y106.357 E43.95962
G1 X69.836 Y105.683 E44.03292
G1 X69.523 Y104.973 E44.10625
G1 X69.285 Y104.235 E44.17953
G1 X69.125 Y103.476 E44.25283
G1 X69.043 Y102.705 E44.3261
G1 X69.041 Y101.929 E44.39943
G1 X69.119 Y101.158 E44.47266
G1 X69.122 Y101.144 E44.47402
G1 X69.054 Y100.647 E44.52142
G1 X69.028 Y99.872 E44.5947
G1 X69.082 Y99.098 E44.66802
G1 X69.216 Y98.334 E44.74132
G1 X69.428 Y97.588 E44.81461
G1 X69.715 Y96.867 E44.88794
G1 X70.075 Y96.18 E44.96124
G1 X70.503 Y95.534 E45.03447
G1 X71.187 Y94.733 E45.134
G1 X72.392 Y93.508 E45.29639
G1 X72.964 Y92.984 E45.36969
G0 F4500 X73.201 Y93.242
G1 F1800 X73.81 Y92.793 E45.44119
G1 X74.464 Y92.41 E45.51281
G1 X75.154 Y92.099 E45.58434
G1 X75.874 Y91.862 E45.65597
G1 X76.614 Y91.702 E45.72751
G1 X77.367 Y91.621 E45.79908
G1 X77.746 Y91.61 E45.83491
G1 X79.669 Y91.607 E46.01664
G1 X80.425 Y91.646 E46.08817
G1 X81.173 Y91.764 E46.15973
G1 X81.576 Y91.872 E46.19916
G1 X85.144 Y91.869 E46.53634
