;FLAVOR:UltiGCode
;TIME:5443
;MATERIAL:11583
;MATERIAL2:0
;NOZZLE_DIAMETER:0.6
;MINX:68.611
;MINY:87.775
;MINZ:0.4
;MAXX:153.284
;MAXY:135.235
;MAXZ:18.85
;Generated with Cura_SteamEngine 4.13.1
M82 ;absolute extrusion mode
G0 F3000 Y50 ;avoid prime blob
G92 E0
G92 E0
G10
;LAYER_COUNT:125
;LAYER:0
M107
G0 F3927.3 X72.631 Y92.85 Z0.4
;TYPE:SKIRT
G11
G1 F1800 X73.278 Y92.363 E0.17168
G1 X73.971 Y91.941 E0.34369
G1 X74.701 Y91.59 E0.51541
G1 X75.462 Y91.312 E0.68717
G1 X76.247 Y91.111 E0.85896
G1 X76.784 Y91.029 E0.97412
G1 X76.809 Y91.02 E0.97976
G1 X77.598 Y90.836 E1.15151
G1 X78.401 Y90.73 E1.32322
G1 X79.211 Y90.703 E1.49504
G1 X80.02 Y90.757 E1.66693
G1 X80.531 Y90.842 E1.77675
G1 X84.86 Y90.838 E2.6945
G1 X85.67 Y90.877 E2.86642
G1 X86.471 Y90.996 E3.03809
G1 X86.878 Y91.098 E3.12705
G1 X87.016 Y90.914 E3.17581
G1 X87.541 Y90.336 E3.34134
G1 X87.696 Y90.181 E3.38781
G1 X88.297 Y89.637 E3.55967
G1 X88.948 Y89.155 E3.73139
G1 X89.644 Y88.739 E3.90329
G1 X90.377 Y88.394 E4.07504
G1 X91.141 Y88.123 E4.2469
G1 X91.927 Y87.928 E4.41858
G1 X92.729 Y87.812 E4.59037
G1 X93.505 Y87.775 E4.75507
G1 X95.508 Y87.775 E5.17971
G1 X96.317 Y87.815 E5.35143
G1 X97.119 Y87.935 E5.52334
G1 X97.905 Y88.132 E5.69513
G1 X98.667 Y88.407 E5.86687
G1 X99.399 Y88.755 E6.0387
G1 X100.093 Y89.174 E6.21056
G1 X100.743 Y89.659 E6.38249
G1 X101.019 Y89.91 E6.46158
G1 X101.048 Y89.897 E6.46832
G1 X101.813 Y89.629 E6.64017
G1 X102.601 Y89.437 E6.81211
G1 X103.403 Y89.325 E6.98378
G1 X104.141 Y89.291 E7.14041
G1 X111.824 Y89.287 E8.7692
G1 X112.633 Y89.327 E8.94092
G1 X113.435 Y89.446 E9.1128
G1 X113.704 Y89.509 E9.17138
G1 X114.212 Y89.585 E9.28027
G1 X114.998 Y89.782 E9.45206
G1 X115.76 Y90.057 E9.6238
G1 X116.312 Y90.319 E9.75333
G1 X118.187 Y90.318 E10.15083
G1 X119.485 Y89.736 E10.45241
G1 X120.24 Y89.441 E10.62425
G1 X120.774 Y89.282 E10.74237
G1 X120.82 Y89.27 E10.75245
G1 X121.614 Y89.104 E10.92442
G1 X122.329 Y89.023 E11.07697
G1 X123.779 Y88.923 E11.3851
G1 X124.589 Y88.908 E11.55685
G1 X125.397 Y88.972 E11.72868
G1 X126.195 Y89.115 E11.90055
G1 X126.974 Y89.336 E12.07221
G1 X127.728 Y89.633 E12.24402
G1 X127.773 Y89.637 E12.25359
G1 X128.424 Y89.155 E12.42532
G1 X129.12 Y88.739 E12.59722
G1 X129.853 Y88.394 E12.76896
G1 X130.617 Y88.123 E12.94082
G1 X131.403 Y87.928 E13.1125
G1 X132.205 Y87.812 E13.2843
G1 X132.981 Y87.775 E13.449
G1 X134.875 Y87.775 E13.85052
G1 X135.684 Y87.815 E14.02224
G1 X136.486 Y87.935 E14.19416
G1 X137.272 Y88.132 E14.36594
G1 X138.034 Y88.407 E14.53769
G1 X138.766 Y88.755 E14.70951
G1 X139.46 Y89.174 E14.88138
G1 X140.11 Y89.659 E15.05331
G1 X140.684 Y90.181 E15.21779
G1 X140.839 Y90.336 E15.26426
G1 X141.383 Y90.937 E15.43612
G1 X141.865 Y91.588 E15.60784
G1 X142.281 Y92.284 E15.77974
G1 X142.626 Y93.017 E15.95149
G1 X142.897 Y93.781 E16.12335
G1 X143.006 Y94.221 E16.21945
G1 X143.718 Y94.212 E16.3704
G1 X144.526 Y94.281 E16.54232
G1 X145.322 Y94.43 E16.714
G1 X146.1 Y94.657 E16.88582
G1 X146.852 Y94.96 E17.0577
G1 X147.571 Y95.335 E17.22961
G1 X148.249 Y95.779 E17.40142
G1 X148.88 Y96.287 E17.57316
G1 X149.298 Y96.686 E17.69567
G1 X149.7 Y97.113 E17.82
G1 X151.215 Y98.844 E18.30767
G1 X151.718 Y99.479 E18.47941
G1 X152.156 Y100.161 E18.65124
G1 X152.524 Y100.883 E18.82304
G1 X152.719 Y101.352 E18.93072
G1 X152.977 Y102.121 E19.10268
G1 X153.158 Y102.911 E19.2745
G1 X153.26 Y103.715 E19.44631
G1 X153.284 Y104.346 E19.58018
G1 X153.284 Y112.238 E21.25329
G1 X153.244 Y113.047 E21.425
G1 X153.185 Y113.441 E21.50946
G1 X153.185 Y118.621 E22.60762
G1 X153.145 Y119.43 E22.77934
G1 X153.025 Y120.232 E22.95126
G1 X152.828 Y121.018 E23.12304
G1 X152.616 Y121.625 E23.25935
G1 X152.583 Y121.709 E23.27848
G1 X152.25 Y122.448 E23.45032
G1 X151.846 Y123.15 E23.62203
G1 X151.12 Y124.114 E23.87787
G1 X149.595 Y125.857 E24.36886
G1 X149.032 Y126.44 E24.54068
G1 X148.414 Y126.965 E24.71259
G1 X147.747 Y127.426 E24.88448
G1 X147.039 Y127.819 E25.05615
G1 X146.295 Y128.141 E25.22801
G1 X145.523 Y128.387 E25.39978
G1 X144.73 Y128.557 E25.57172
G1 X143.925 Y128.647 E25.74344
G1 X143.114 Y128.658 E25.91539
G1 X143.043 Y128.652 E25.9305
G1 X142.89 Y129.262 E26.06382
G1 X142.615 Y130.024 E26.23557
G1 X142.267 Y130.756 E26.40739
G1 X141.848 Y131.45 E26.57926
G1 X141.363 Y132.1 E26.75119
G1 X140.841 Y132.674 E26.91567
G1 X140.686 Y132.829 E26.96214
G1 X140.085 Y133.373 E27.134
G1 X139.434 Y133.855 E27.30572
G1 X138.738 Y134.271 E27.47762
G1 X138.005 Y134.616 E27.64937
G1 X137.241 Y134.887 E27.82122
G1 X136.455 Y135.082 E27.99291
G1 X135.653 Y135.198 E28.1647
G1 X134.877 Y135.235 E28.3294
G1 X132.982 Y135.235 E28.73114
G1 X132.173 Y135.195 E28.90286
G1 X131.371 Y135.075 E29.07477
G1 X130.585 Y134.878 E29.24656
G1 X129.823 Y134.603 E29.4183
G1 X129.091 Y134.255 E29.59013
G1 X128.397 Y133.836 E29.76199
G1 X127.747 Y133.351 E29.93393
G1 X127.642 Y133.255 E29.96409
G1 X127.44 Y133.349 E30.01132
G1 X126.675 Y133.617 E30.18317
G1 X125.888 Y133.808 E30.35485
G1 X125.085 Y133.921 E30.52677
G1 X124.275 Y133.954 E30.69863
G1 X123.757 Y133.933 E30.80854
G1 X122.309 Y133.829 E31.1163
G1 X121.505 Y133.731 E31.28801
G1 X120.862 Y133.594 E31.42739
G1 X120.819 Y133.583 E31.4368
G1 X120.045 Y133.343 E31.60859
G1 X119.493 Y133.119 E31.73489
G1 X118.202 Y132.54 E32.03484
G1 X116.38 Y132.54 E32.42111
G1 X115.621 Y132.797 E32.59099
G1 X114.586 Y133.079 E32.81841
G1 X113.959 Y133.235 E32.95538
G1 X113.166 Y133.403 E33.12723
G1 X112.361 Y133.491 E33.29891
G1 X111.867 Y133.506 E33.40368
G1 X107.061 Y133.506 E34.42256
G1 X104.137 Y133.503 E35.04244
G1 X103.327 Y133.462 E35.21438
G1 X102.526 Y133.342 E35.38609
G1 X101.74 Y133.143 E35.55798
G1 X101.191 Y132.945 E35.68171
G1 X100.718 Y133.373 E35.81694
G1 X100.067 Y133.855 E35.98866
G1 X99.371 Y134.271 E36.16056
G1 X98.638 Y134.616 E36.33231
G1 X97.874 Y134.887 E36.50417
G1 X97.088 Y135.082 E36.67585
G1 X96.286 Y135.198 E36.84764
G1 X95.51 Y135.235 E37.01234
G1 X93.502 Y135.235 E37.43804
G1 X92.693 Y135.195 E37.60976
G1 X91.891 Y135.075 E37.78167
G1 X91.105 Y134.878 E37.95346
G1 X90.343 Y134.603 E38.1252
G1 X89.611 Y134.255 E38.29703
G1 X88.917 Y133.836 E38.46889
G1 X88.267 Y133.351 E38.64083
G1 X87.731 Y132.866 E38.79407
G1 X87.576 Y132.713 E38.84024
G1 X87.028 Y132.116 E39.01204
G1 X86.788 Y131.797 E39.09667
G1 X86.39 Y131.893 E39.18347
G1 X85.587 Y132.004 E39.35532
G1 X84.863 Y132.036 E39.50896
G1 X81.743 Y132.036 E40.1704
G1 X81.351 Y132.172 E40.25837
G1 X80.563 Y132.362 E40.43021
G1 X79.76 Y132.472 E40.60204
G1 X78.951 Y132.504 E40.77368
G1 X78.142 Y132.455 E40.9455
G1 X77.341 Y132.326 E41.1175
G1 X76.558 Y132.12 E41.28914
G1 X76.475 Y132.089 E41.30793
G1 X75.936 Y131.986 E41.42426
G1 X75.158 Y131.757 E41.5962
G1 X74.408 Y131.451 E41.76792
G1 X73.691 Y131.074 E41.93966
G1 X73.014 Y130.627 E42.11164
G1 X72.385 Y130.116 E42.28345
G1 X71.993 Y129.74 E42.3986
G1 X70.946 Y128.667 E42.71643
G1 X70.41 Y128.06 E42.8881
G1 X69.935 Y127.403 E43.05998
G1 X69.528 Y126.702 E43.23182
G1 X69.192 Y125.965 E43.40354
G1 X68.93 Y125.198 E43.57536
G1 X68.745 Y124.409 E43.74717
G1 X68.639 Y123.605 E43.91909
G1 X68.611 Y122.93 E44.06231
G1 X68.611 Y121.069 E44.45685
G1 X68.651 Y120.26 E44.62856
G1 X68.771 Y119.458 E44.80048
G1 X68.968 Y118.672 E44.97227
G1 X69.243 Y117.91 E45.14401
G1 X69.591 Y117.178 E45.31584
G1 X70.01 Y116.484 E45.4877
G1 X70.495 Y115.834 E45.65963
G1 X70.953 Y115.325 E45.80479
G1 X71.978 Y114.277 E46.11557
G1 X71.982 Y108.847 E47.26673
G1 X70.981 Y107.83 E47.56925
G1 X70.442 Y107.225 E47.74103
G1 X69.965 Y106.57 E47.91281
G1 X69.555 Y105.871 E48.08461
G1 X69.215 Y105.135 E48.25648
G1 X68.95 Y104.369 E48.42832
G1 X68.762 Y103.581 E48.60006
G1 X68.652 Y102.778 E48.77189
G1 X68.622 Y101.968 E48.94373
G1 X68.671 Y101.159 E49.11555
G1 X68.661 Y101.024 E49.14425
G1 X68.623 Y100.215 E49.31595
G1 X68.665 Y99.406 E49.48768
G1 X68.786 Y98.604 E49.65963
G1 X68.985 Y97.819 E49.83132
G1 X69.261 Y97.057 E50.00313
G1 X69.611 Y96.326 E50.17495
G1 X70.031 Y95.633 E50.34674
G1 X70.518 Y94.984 E50.51876
G1 X70.98 Y94.472 E50.66496
G1 X72.035 Y93.399 E50.98397
G1 X72.631 Y92.85 E51.15576
G0 F3927.3 X72.99 Y93.241
G1 F1800 X73.619 Y92.772 E51.3221
G1 X74.292 Y92.37 E51.48829
G1 X75.002 Y92.039 E51.65436
G1 X75.742 Y91.781 E51.8205
G1 X76.505 Y91.6 E51.98675
G1 X76.98 Y91.523 E52.08876
G1 X77.744 Y91.348 E52.25493
G1 X78.522 Y91.252 E52.42111
G1 X79.305 Y91.236 E52.58714
G1 X80.087 Y91.299 E52.75346
G1 X80.445 Y91.372 E52.83092
G1 X84.861 Y91.368 E53.76711
G1 X85.644 Y91.407 E53.93332
G1 X86.418 Y91.526 E54.09933
G1 X87.085 Y91.699 E54.24542
G1 X87.541 Y91.114 E54.40266
G1 X87.916 Y90.711 E54.51936
G1 X88.071 Y90.556 E54.56584
G1 X88.653 Y90.031 E54.732
G1 X89.285 Y89.567 E54.89822
G1 X89.961 Y89.171 E55.06431
G1 X90.674 Y88.845 E55.23052
G1 X91.417 Y88.594 E55.39678
G1 X92.181 Y88.42 E55.56289
G1 X92.959 Y88.324 E55.72908
G1 X93.505 Y88.305 E55.8449
G1 X95.508 Y88.305 E56.26954
G1 X96.291 Y88.345 E56.43575
G1 X97.065 Y88.464 E56.60177
G1 X97.824 Y88.662 E56.76806
G1 X98.558 Y88.936 E56.93416
G1 X99.261 Y89.284 E57.10045
G1 X99.925 Y89.701 E57.26668
G1 X100.542 Y90.183 E57.43266
G1 X100.921 Y90.536 E57.54246
G1 X101.536 Y90.277 E57.68394
G1 X102.286 Y90.049 E57.85012
G1 X103.056 Y89.899 E58.01643
G1 X104.141 Y89.821 E58.24704
G1 X111.824 Y89.817 E59.87584
G1 X112.607 Y89.857 E60.04205
G1 X113.382 Y89.976 E60.20828
G1 X113.601 Y90.028 E60.256
G1 X114.158 Y90.114 E60.37548
G1 X114.917 Y90.312 E60.54177
G1 X115.651 Y90.586 E60.70787
G1 X116.183 Y90.849 E60.83368
G1 X118.3 Y90.848 E61.28249
G1 X119.702 Y90.219 E61.60825
G1 X120.433 Y89.935 E61.77451
G1 X120.954 Y89.783 E61.88957
G1 X121.722 Y89.624 E62.05583
G1 X122.365 Y89.552 E62.193
G1 X123.815 Y89.452 E62.50113
G1 X124.599 Y89.438 E62.66737
G1 X125.38 Y89.504 E62.83353
G1 X126.15 Y89.649 E62.99964
G1 X126.902 Y89.872 E63.16592
G1 X127.627 Y90.17 E63.3321
G1 X127.845 Y90.287 E63.38455
G1 X128.129 Y90.031 E63.46561
G1 X128.761 Y89.567 E63.63183
G1 X129.437 Y89.171 E63.79792
G1 X130.15 Y88.845 E63.96413
G1 X130.893 Y88.594 E64.13039
G1 X131.657 Y88.42 E64.2965
G1 X132.435 Y88.324 E64.46269
G1 X132.981 Y88.305 E64.57851
G1 X134.875 Y88.305 E64.98004
G1 X135.658 Y88.345 E65.14625
G1 X136.432 Y88.464 E65.31227
G1 X137.191 Y88.662 E65.47856
G1 X137.925 Y88.936 E65.64466
G1 X138.628 Y89.284 E65.81095
G1 X139.292 Y89.701 E65.97718
G1 X139.909 Y90.183 E66.14316
G1 X140.309 Y90.556 E66.25911
G1 X140.464 Y90.711 E66.30558
G1 X140.989 Y91.293 E66.47175
G1 X141.453 Y91.925 E66.63797
G1 X141.849 Y92.601 E66.80406
G1 X142.175 Y93.314 E66.97027
G1 X142.426 Y94.057 E67.13653
G1 X142.592 Y94.784 E67.29462
G1 X143.3 Y94.737 E67.44504
G1 X144.084 Y94.765 E67.61136
G1 X144.86 Y94.873 E67.77746
G1 X145.621 Y95.06 E67.94359
G1 X146.36 Y95.323 E68.10988
G1 X147.067 Y95.659 E68.27583
G1 X147.737 Y96.067 E68.44213
G1 X148.362 Y96.54 E68.6083
G1 X148.823 Y96.96 E68.74051
G1 X148.926 Y97.062 E68.77124
G1 X149.301 Y97.462 E68.88748
G1 X150.816 Y99.193 E69.37515
G1 X151.301 Y99.808 E69.5412
G1 X151.722 Y100.47 E69.70752
G1 X152.19 Y101.454 E69.93852
G1 X152.226 Y101.546 E69.95946
G1 X152.474 Y102.289 E70.12552
G1 X152.645 Y103.054 E70.2917
G1 X152.737 Y103.833 E70.458
G1 X152.754 Y104.346 E70.56682
G1 X152.754 Y112.238 E72.23992
G1 X152.714 Y113.021 E72.40613
G1 X152.655 Y113.405 E72.4885
G1 X152.655 Y118.621 E73.59429
G1 X152.615 Y119.404 E73.7605
G1 X152.496 Y120.178 E73.92652
G1 X152.298 Y120.937 E74.09281
G1 X152.123 Y121.431 E74.20391
G1 X152.09 Y121.515 E74.22305
G1 X151.766 Y122.229 E74.38927
G1 X151.372 Y122.906 E74.55533
G1 X150.721 Y123.765 E74.78383
G1 X149.196 Y125.508 E75.27481
G1 X148.65 Y126.071 E75.44108
G1 X148.05 Y126.576 E75.60734
G1 X147.402 Y127.016 E75.77339
G1 X146.712 Y127.388 E75.93957
G1 X145.988 Y127.688 E76.10572
G1 X145.237 Y127.913 E76.27192
G1 X144.467 Y128.06 E76.43811
G1 X143.686 Y128.128 E76.60431
G1 X142.902 Y128.116 E76.77053
G1 X142.61 Y128.082 E76.83286
G1 X142.558 Y128.422 E76.90577
G1 X142.36 Y129.181 E77.07207
G1 X142.086 Y129.915 E77.23816
G1 X141.738 Y130.618 E77.40446
G1 X141.321 Y131.282 E77.57069
G1 X140.839 Y131.899 E77.73667
G1 X140.466 Y132.299 E77.85262
G1 X140.311 Y132.454 E77.89909
G1 X139.729 Y132.979 E78.06526
G1 X139.097 Y133.443 E78.23147
G1 X138.421 Y133.839 E78.39756
G1 X137.708 Y134.165 E78.56377
G1 X136.965 Y134.416 E78.73003
G1 X136.201 Y134.59 E78.89615
G1 X135.423 Y134.686 E79.06233
G1 X134.877 Y134.705 E79.17816
G1 X132.982 Y134.705 E79.5799
G1 X132.199 Y134.665 E79.74611
G1 X131.425 Y134.546 E79.91213
G1 X130.666 Y134.348 E80.07842
G1 X129.932 Y134.074 E80.24452
G1 X129.229 Y133.726 E80.41081
G1 X128.565 Y133.309 E80.57704
G1 X127.948 Y132.827 E80.74302
G1 X127.738 Y132.631 E80.80392
G1 X127.675 Y132.665 E80.8191
G1 X126.952 Y132.969 E80.98537
G1 X126.202 Y133.196 E81.1515
G1 X125.433 Y133.347 E81.31764
G1 X124.652 Y133.418 E81.48389
G1 X123.795 Y133.404 E81.6656
G1 X122.347 Y133.3 E81.97337
G1 X121.57 Y133.204 E82.13934
G1 X120.993 Y133.08 E82.26446
G1 X120.95 Y133.069 E82.27387
G1 X120.202 Y132.837 E82.4399
G1 X119.71 Y132.636 E82.55257
G1 X118.314 Y132.01 E82.87692
G1 X116.29 Y132.01 E83.306
G1 X116.166 Y132.064 E83.33468
G1 X115.481 Y132.286 E83.48733
G1 X114.446 Y132.568 E83.71475
G1 X113.824 Y132.723 E83.85065
G1 X113.057 Y132.883 E84.01675
G1 X112.277 Y132.965 E84.18302
G1 X111.867 Y132.976 E84.26997
G1 X107.061 Y132.976 E85.28885
G1 X104.137 Y132.973 E85.90873
G1 X103.354 Y132.932 E86.07496
G1 X102.58 Y132.812 E86.24101
G1 X101.822 Y132.613 E86.40715
G1 X101.087 Y132.339 E86.57344
G1 X100.944 Y132.454 E86.61235
G1 X100.362 Y132.979 E86.77851
G1 X99.73 Y133.443 E86.94473
G1 X99.054 Y133.839 E87.11082
G1 X98.341 Y134.165 E87.27703
G1 X97.598 Y134.416 E87.44329
G1 X96.834 Y134.59 E87.6094
G1 X96.056 Y134.686 E87.77559
G1 X95.51 Y134.705 E87.89141
G1 X93.502 Y134.705 E88.31711
G1 X92.719 Y134.665 E88.48332
G1 X91.945 Y134.546 E88.64934
G1 X91.186 Y134.348 E88.81563
G1 X90.452 Y134.074 E88.98173
G1 X89.749 Y133.726 E89.14802
G1 X89.085 Y133.309 E89.31425
G1 X88.468 Y132.827 E89.48023
G1 X87.948 Y132.336 E89.63185
G1 X87.419 Y131.758 E89.79796
G1 X87 Y131.193 E89.94709
G1 X86.705 Y131.282 E90.01241
G1 X85.936 Y131.431 E90.17847
G1 X84.863 Y131.506 E90.4065
G1 X81.662 Y131.506 E91.08511
G1 X81.078 Y131.699 E91.21551
G1 X80.313 Y131.868 E91.3816
G1 X79.534 Y131.958 E91.54784
G1 X78.751 Y131.969 E91.71386
G1 X77.97 Y131.899 E91.88009
G1 X77.2 Y131.751 E92.04632
G1 X76.649 Y131.584 E92.16838
G1 X76.011 Y131.459 E92.30621
G1 X75.261 Y131.23 E92.47245
G1 X74.538 Y130.927 E92.63864
G1 X73.85 Y130.551 E92.80486
G1 X73.204 Y130.107 E92.97104
G1 X72.373 Y129.37 E93.20652
G1 X71.326 Y128.297 E93.52434
G1 X70.808 Y127.709 E93.69047
G1 X70.352 Y127.071 E93.85672
G1 X69.964 Y126.39 E94.02288
G1 X69.647 Y125.673 E94.18908
G1 X69.405 Y124.927 E94.35535
G1 X69.24 Y124.161 E94.52146
G1 X69.154 Y123.382 E94.68761
G1 X69.141 Y122.93 E94.78348
G1 X69.141 Y121.069 E95.17801
G1 X69.181 Y120.286 E95.34422
G1 X69.3 Y119.512 E95.51024
G1 X69.498 Y118.753 E95.67653
G1 X69.772 Y118.019 E95.84263
G1 X70.12 Y117.316 E96.00893
G1 X70.537 Y116.652 E96.17515
G1 X71.019 Y116.035 E96.34114
G1 X71.332 Y115.695 E96.43911
G1 X72.403 Y114.6 E96.76383
G1 X72.508 Y114.503 E96.79413
G1 X72.512 Y108.623 E98.04069
G1 X72.426 Y108.542 E98.06574
G1 X71.359 Y107.458 E98.3882
G1 X70.838 Y106.872 E98.55443
G1 X70.38 Y106.236 E98.72058
G1 X69.989 Y105.557 E98.88669
G1 X69.669 Y104.841 E99.05295
G1 X69.424 Y104.097 E99.21901
G1 X69.256 Y103.331 E99.38527
G1 X69.166 Y102.552 E99.55151
G1 X69.157 Y101.769 E99.71752
G1 X69.214 Y101.129 E99.85374
G1 X69.182 Y100.896 E99.9036
G1 X69.154 Y100.113 E100.0697
G1 X69.206 Y99.331 E100.23585
G1 X69.337 Y98.558 E100.40206
G1 X69.547 Y97.803 E100.5682
G1 X69.832 Y97.073 E100.73433
G1 X70.191 Y96.376 E100.90055
G1 X70.618 Y95.719 E101.06666
G1 X71.358 Y94.844 E101.30961
G1 X72.413 Y93.771 E101.62862
G1 X72.99 Y93.241 E101.79472
G0 F3927.3 X73.349 Y93.632
G1 F1800 X73.958 Y93.183 E101.95512
G1 X74.611 Y92.801 E102.1155
G1 X75.3 Y92.49 E102.27576
G1 X76.018 Y92.254 E102.43599
G1 X76.758 Y92.095 E102.59645
G1 X77.15 Y92.025 E102.68087
